common/resources/fonts/svg/draft-inverted.svg

<?xml version="1.0" encoding="UTF-8"?>
<svg width="1024px" height="1024px" viewBox="0 0 1024 1024" version="1.1" xmlns="http://www.w3.org/2000/svg" xmlns:xlink="http://www.w3.org/1999/xlink">
    <!-- Generator: Sketch 47.1 (45422) - http://www.bohemiancoding.com/sketch -->
    <title>draft-inverted</title>
    <desc>Created with Sketch.</desc>
    <defs>
        <path d="M120.774259,418.014593 L0,451 L32.779948,330.053206 L274.148042,88.0927897 L362.139647,176.054177 L120.773808,418.014593 L120.774259,418.014593 Z M395.130241,8.67847553 C388.971004,2.89207687 381.910999,-0.00496049009 373.952932,6.37571087e-06 C365.989903,0.00452170825 359.117088,2.9128474 353.338998,8.70872825 L303.436779,58.7300337 L391.428384,146.691421 L441.330603,96.6674062 C447.108693,90.873783 450.004955,83.9847402 449.999994,76.0133721 C449.995483,68.0492285 447.087945,60.9863454 441.302638,54.8274318 L395.130241,8.67847553 L395.130241,8.67847553 Z" id="path-1"></path>
    </defs>
    <g id="Page-1" stroke="none" stroke-width="1" fill="none" fill-rule="evenodd">
        <g id="draft-inverted">
            <g id="Icon/Public" transform="translate(299.000000, 279.000000)">
                <mask id="mask-2" fill="white">
                    <use xlink:href="#path-1"></use>
                </mask>
                <use id="Shape" fill="#000000" xlink:href="#path-1"></use>
            </g>
            <path d="M512,78 C589.639277,78 661.454531,97.2602241 727.447917,135.78125 C793.441302,174.302276 845.697724,226.558698 884.21875,292.552083 C922.739776,358.545469 942,430.360723 942,508 C942,585.639277 922.739776,657.454531 884.21875,723.447917 C845.697724,789.441302 793.441302,841.697724 727.447917,880.21875 C661.454531,918.739776 589.639277,938 512,938 C434.360723,938 362.545469,918.739776 296.552083,880.21875 C230.558698,841.697724 178.302276,789.441302 139.78125,723.447917 C101.260224,657.454531 82,585.639277 82,508 C82,430.360723 101.260224,358.545469 139.78125,292.552083 C178.302276,226.558698 230.558698,174.302276 296.552083,135.78125 C362.545469,97.2602241 434.360723,78 512,78 Z M512,866.333333 C609.424447,866.333333 693.501819,830.967455 764.234637,760.234637 C834.967455,689.501819 870.333333,605.424447 870.333333,508 C870.333333,410.575553 834.967455,326.498181 764.234637,255.765363 C693.501819,185.032545 609.424447,149.666667 512,149.666667 C414.575553,149.666667 330.498181,185.032545 259.765363,255.765363 C189.032545,326.498181 153.666667,410.575553 153.666667,508 C153.666667,605.424447 189.032545,689.501819 259.765363,760.234637 C330.498181,830.967455 414.575553,866.333333 512,866.333333 Z" id="time" fill="#000000"></path>
        </g>
    </g>
</svg>

<svg width="1024" height="1024" viewBox="0 0 1024 1024">
    <g fill-rule="evenodd">
        <path transform="translate(299 279)" d="M120.774 418.015L0 451l32.78-120.947 241.368-241.96 87.992 87.961-241.366 241.96zM395.13 8.678C388.971 2.892 381.911-.005 373.953 0c-7.963.005-14.836 2.913-20.614 8.709L303.437 58.73l87.991 87.961 49.903-50.024c5.778-5.793 8.674-12.682 8.669-20.654-.005-7.964-2.912-15.027-8.697-21.186L395.13 8.678z" />
        <path d="M512 78c77.64 0 149.455 19.26 215.448 57.781s118.25 90.778 156.77 156.771C922.74 358.545 942 430.361 942 508c0 77.64-19.26 149.455-57.781 215.448s-90.778 118.25-156.771 156.77C661.455 918.74 589.639 938 512 938c-77.64 0-149.455-19.26-215.448-57.781s-118.25-90.778-156.77-156.771C101.26 657.455 82 585.639 82 508c0-77.64 19.26-149.455 57.781-215.448s90.778-118.25 156.771-156.77C362.545 97.26 434.361 78 512 78zm0 788.333c97.424 0 181.502-35.366 252.235-106.098C834.967 689.502 870.333 605.425 870.333 508c0-97.424-35.366-181.502-106.098-252.235C693.502 185.033 609.425 149.667 512 149.667c-97.424 0-181.502 35.366-252.235 106.098C189.033 326.498 153.667 410.575 153.667 508c0 97.424 35.366 181.502 106.098 252.235C330.498 830.967 414.575 866.333 512 866.333z"/>
    </g>
</svg>
